X: 1
T: Let Down The Blade
M: 12/8
L: 1/8
R: slide
K: Dmix
FGA ABA ABA AFD | F~A2 AFD DEF ~G3 |
FGA ABA ABA AFD | ~G3 B/c/dB cAF ~G3 :|
G2B BGB BGB cBA | G2B BAG AFD FGA |
G2B BGB BGB cBA |1 GAB cde dBG cAF :|2 GAB cde dBG cAG ||
